pix_core/f/folder.svg

<?xml version="1.0" encoding="UTF-8" standalone="no"?>
<svg
   xmlns:dc="http://purl.org/dc/elements/1.1/"
   xmlns:cc="http://creativecommons.org/ns#"
   xmlns:rdf="http://www.w3.org/1999/02/22-rdf-syntax-ns#"
   xmlns:svg="http://www.w3.org/2000/svg"
   xmlns="http://www.w3.org/2000/svg"
   xmlns:sodipodi="http://sodipodi.sourceforge.net/DTD/sodipodi-0.dtd"
   xmlns:inkscape="http://www.inkscape.org/namespaces/inkscape"
   enable-background="new 0 0 64 64"
   height="64px"
   version="1.1"
   viewBox="0 0 64 64"
   width="64px"
   xml:space="preserve"
   id="svg2"
   inkscape:version="0.91 r13725"
   sodipodi:docname="folder.svg"><metadata
     id="metadata30"><rdf:RDF><cc:Work
         rdf:about=""><dc:format>image/svg+xml</dc:format><dc:type
           rdf:resource="http://purl.org/dc/dcmitype/StillImage" /></cc:Work></rdf:RDF></metadata><defs
     id="defs28" /><sodipodi:namedview
     pagecolor="#ffffff"
     bordercolor="#666666"
     borderopacity="1"
     objecttolerance="10"
     gridtolerance="10"
     guidetolerance="10"
     inkscape:pageopacity="0"
     inkscape:pageshadow="2"
     inkscape:window-width="1638"
     inkscape:window-height="689"
     id="namedview26"
     showgrid="false"
     inkscape:zoom="3.6875"
     inkscape:cx="-38.508475"
     inkscape:cy="32"
     inkscape:window-x="10"
     inkscape:window-y="34"
     inkscape:window-maximized="0"
     inkscape:current-layer="Layer_1" /><g
     id="Layer_1"><g
       id="g9"
       transform="matrix(1.3728813,0,0,1.4865403,-11.79661,-17.004985)"
       style="opacity:0.2"><g
         id="g11"><path
           d="m 32,22.923 -0.417,0 -17.083,0 c -1.38,0 -2.5,1.063 -2.5,2.422 l 0,22.193 C 12,48.897 13.12,50 14.5,50 l 35,0 c 1.38,0 2.5,-1.103 2.5,-2.462 l 0,-19.692 0,-2.501 0,-2.422 -20,0 z"
           id="path13"
           inkscape:connector-curvature="0"
           style="fill:#231f20" /></g></g><g
       id="g15"
       style="fill:#ffe255;fill-opacity:1"
       transform="matrix(1.3728813,0,0,1.4865403,-11.79661,-17.004985)"><g
         id="g17"
         style="fill:#ffe255;fill-opacity:1"><path
           d="m 32,20.923 -0.417,0 -17.083,0 c -1.38,0 -2.5,1.063 -2.5,2.422 l 0,22.193 C 12,46.897 13.12,48 14.5,48 l 35,0 c 1.38,0 2.5,-1.103 2.5,-2.462 l 0,-19.692 0,-2.501 0,-2.422 -20,0 z"
           id="path19"
           style="fill:#ffe255;fill-opacity:1"
           inkscape:connector-curvature="0" /></g></g><g
       id="g21"
       style="fill:#ff7e00;fill-opacity:1"
       transform="matrix(1.3728813,0,0,1.4865403,-11.79661,-17.004985)"><path
         d="M 52,18.462 C 52,17.103 50.88,16 49.5,16 L 37,16 c -1.38,0 -2.5,1.103 -2.5,2.462 0,0 -0.325,2.257 -2.5,2.461 l 20,0 0,-2.461 z"
         id="path23"
         style="fill:#ff7e00;fill-opacity:1"
         inkscape:connector-curvature="0" /></g></g><g
     id="Layer_2" /></svg>

<?xml version="1.0" encoding="UTF-8" standalone="no"?>
<svg
   xmlns:dc="http://purl.org/dc/elements/1.1/"
   xmlns:cc="http://creativecommons.org/ns#"
   xmlns:rdf="http://www.w3.org/1999/02/22-rdf-syntax-ns#"
   xmlns:svg="http://www.w3.org/2000/svg"
   xmlns="http://www.w3.org/2000/svg"
   xmlns:sodipodi="http://sodipodi.sourceforge.net/DTD/sodipodi-0.dtd"
   xmlns:inkscape="http://www.inkscape.org/namespaces/inkscape"
   enable-background="new 0 0 64 64"
   height="68.26667"
   version="1.1"
   viewBox="0 0 64 64"
   width="68.26667"
   xml:space="preserve"
   id="svg2"
   inkscape:version="0.92.1 r15371"
   sodipodi:docname="folder.svg"><metadata
     id="metadata30"><rdf:RDF><cc:Work
         rdf:about=""><dc:format>image/svg+xml</dc:format><dc:type
           rdf:resource="http://purl.org/dc/dcmitype/StillImage" /></cc:Work></rdf:RDF></metadata><defs
     id="defs28" /><sodipodi:namedview
     pagecolor="#ffffff"
     bordercolor="#666666"
     borderopacity="1"
     objecttolerance="10"
     gridtolerance="10"
     guidetolerance="10"
     inkscape:pageopacity="0"
     inkscape:pageshadow="2"
     inkscape:window-width="1638"
     inkscape:window-height="689"
     id="namedview26"
     showgrid="false"
     inkscape:zoom="3.6875"
     inkscape:cx="-38.508475"
     inkscape:cy="32"
     inkscape:window-x="10"
     inkscape:window-y="34"
     inkscape:window-maximized="0"
     inkscape:current-layer="Layer_1" /><g
     id="Layer_1"><g
       id="g9"
       transform="matrix(1.3728813,0,0,1.4865403,-11.79661,-17.004985)"
       style="opacity:0.2"><g
         id="g11"><path
           d="M 32,22.923 H 31.583 14.5 c -1.38,0 -2.5,1.063 -2.5,2.422 V 47.538 C 12,48.897 13.12,50 14.5,50 h 35 C 50.88,50 52,48.897 52,47.538 V 27.846 25.345 22.923 Z"
           id="path13"
           inkscape:connector-curvature="0"
           style="fill:#231f20" /></g></g><g
       id="g15"
       style="fill:#31b7d6;fill-opacity:1"
       transform="matrix(1.3728813,0,0,1.4865403,-11.79661,-17.004985)"><g
         id="g17"
         style="fill:#31b7d6;fill-opacity:1"><path
           d="M 32,20.923 H 31.583 14.5 c -1.38,0 -2.5,1.063 -2.5,2.422 V 45.538 C 12,46.897 13.12,48 14.5,48 h 35 C 50.88,48 52,46.897 52,45.538 V 25.846 23.345 20.923 Z"
           id="path19"
           style="fill:#31b7d6;fill-opacity:1"
           inkscape:connector-curvature="0" /></g></g><g
       id="g21"
       style="fill:#ffb85a;fill-opacity:1"
       transform="matrix(1.3728813,0,0,1.4865403,-11.79661,-17.004985)"><path
         d="M 52,18.462 C 52,17.103 50.88,16 49.5,16 H 37 c -1.38,0 -2.5,1.103 -2.5,2.462 0,0 -0.325,2.257 -2.5,2.461 h 20 z"
         id="path23"
         style="fill:#ffb85a;fill-opacity:1"
         inkscape:connector-curvature="0" /></g></g><g
     id="Layer_2" /></svg>
